X:1
T:Title
%%score { ( 1 4 ) | ( 2 3 ) }
L:1/8
Q:1/4=90
M:6/8
K:Ab
V:1 treble nm="Grand Piano"
V:4 treble 
V:2 bass 
V:3 bass 
V:1
 [CE][DF][EG] [FA]2 [DF] | [CE]6 | EFE B2 c | B6 | [=Ec][Ec][Ec] [Ec]2 [CEB] | A2 F F3 | z3 .E3 | %7
w: P.~P.~Bliss * * * *|||||||
 [A,CE]6 |] %8
w: |
V:2
 [A,,A,][A,,A,][A,,A,] [A,,A,]2 [A,,A,] | [A,,A,]6 | [E,G,][E,A,E][E,G,] [E,G,E]2 [E,A,E] | %3
 [E,G,E]6 | [C,G,][C,G,][C,G,] G,CC, | [F,CF]2 [F,A,C] [D,A,D]3 | [E,A,C][E,B,D][E,C] [B,D]A,E, | %7
 A,,6 |] %8
V:3
 x6 | x6 | x6 | x6 | z3 .C,3 | x6 | z3 .E,3 | x6 |] %8
V:4
 x6 | x6 | x6 | x6 | x6 | x6 | EEE z C[G,B,E] | x6 |] %8

